X:1
T:Old French Song
T:Old French Song
T:Piotr Ilych Tchaikovsky
T:Arranged by Larry Clark
C:Piotr Ilych Tchaikovsky
Z:Arranged by Larry Clark
%%score 1 2
L:1/8
M:2/4
K:Bb
V:1 treble transpose=-7 nm="Horn in F" snm="F Hn."
V:2 bass nm="Trombone" snm="Tbn."
V:1
[K:F]!p! (A, | DE FG | A3) (A | GA BG | A3) (A | GA BG | AB/A/ G)F | (E3 D | A3)!pp! (A | GA BG | %10
 A3) (A | GA BG | A3) (A | G)A BG | (AB/)A/ GF | E3 D | D4 |!p! GD GB | dD FA | GD GB | %20
"_cresc." AE Gc | (FA d) z |!mf! (G4 | A2) z2 | (C2 A,2) |!p! (DE FG | A3) (A | GA BG | A3) (A | %29
 GA BG | AB/A/ GF | E3 D | D3) z |] %33
V:2
 z |!p! (B,,C, D,C, | B,,2 G,,2) | (E,2 C,2 | B,,2 G,,2) | (E,2 C2 | B,2 G,2) | (F,2 D,2 | G,4) | %9
!pp! (B,,C, D,C, | B,,2 G,,2) | (E,2 C,2 | B,,2 G,,2) | (E,2 C2) | (B,2 G,2 | F,2 D,2 | G,4) | %17
!p! (G,2 G,A, | B,3) (B, | C2) (C2 |"_cresc." A,3) (A, | D3 D, |!mf! E,F,/E,/ D,C, | B,,2 A,,G,, | %24
 A,,3)!p! D, | (B,,C, D,C, | B,,2 G,,2) | (E,2 C,2 | B,,2 G,,2) | (E,2 C,2 | B,,2 G,,2) | E,2 D,2 | %32
 G,,3 z |] %33

